src/components/content/Icon/functional/globe.svg

<svg width="100" height="100" viewBox="0 0 100 100" fill="none" xmlns="http://www.w3.org/2000/svg">
<path d="M60.7842 25.042C54.6622 22.248 47.7642 21.84 41.3602 23.888C35.0002 25.922 29.6502 30.204 26.2922 35.944C26.0142 36.42 26.1742 37.034 26.6502 37.312C26.8082 37.404 26.9822 37.45 27.1542 37.45C27.4982 37.45 27.8322 37.272 28.0182 36.954C31.1262 31.642 36.0802 27.678 41.9682 25.794C44.7942 24.89 47.7222 24.504 50.6282 24.626C48.4982 25.21 46.2962 26.182 44.0782 27.534C38.6242 30.86 33.9062 36.048 31.4602 41.412C28.1142 48.748 27.9082 58.866 30.9602 66.016C31.0342 66.188 31.1122 66.356 31.1882 66.524C29.3837 64.5638 27.9043 62.3276 26.8062 59.9C24.3402 54.442 23.9082 48.29 25.5882 42.578C25.6565 42.3254 25.6231 42.0561 25.4952 41.8279C25.3674 41.5996 25.1552 41.4305 24.9041 41.3567C24.6531 41.283 24.3832 41.3105 24.1522 41.4333C23.9211 41.5562 23.7474 41.7646 23.6682 42.014C21.8522 48.186 22.3202 54.832 24.9822 60.724C27.4413 66.1627 31.6349 70.6321 36.9062 73.432C37.3862 73.738 37.8822 74.012 38.3962 74.246C38.5202 74.302 38.6482 74.33 38.7762 74.334C42.2762 75.864 45.9322 76.59 49.5362 76.59C59.7882 76.59 69.6102 70.722 74.1362 60.802C80.3142 47.26 74.3242 31.218 60.7822 25.04L60.7842 25.042ZM59.2922 26.67C59.4642 26.734 59.6322 26.802 59.8022 26.876C59.8542 27.196 59.8902 28.02 59.5202 29.906C58.5562 34.802 55.4722 43.584 52.1842 50.79C50.0002 55.576 47.1402 60.946 44.5322 65.156C41.4002 70.21 39.6422 71.97 39.0502 72.262C37.2142 71.25 36.3482 67.584 36.7302 62.378C37.1222 57.034 38.7422 50.804 41.0642 45.718C43.3842 40.63 47.0262 35.324 50.8062 31.524C54.1942 28.118 57.2882 26.366 59.2942 26.672L59.2922 26.67ZM41.3622 72.916C42.4302 71.838 43.8282 70.008 45.7282 67.012C48.5262 62.602 51.6202 56.848 54.0042 51.618C57.4022 44.172 60.4762 35.402 61.4822 30.29C61.6302 29.538 61.7542 28.796 61.8102 28.112C63.1002 29.306 64.1322 31.054 64.8382 33.28C66.8382 39.572 66.0382 48.78 62.8942 55.674C60.5942 60.716 56.4702 65.744 51.8642 69.126C48.0482 71.928 44.3502 73.24 41.3622 72.916ZM33.2802 42.242C37.0562 33.966 46.4322 26.454 54.5302 26.002C52.5282 27.154 50.6742 28.816 49.3862 30.112C45.4482 34.072 41.6562 39.594 39.2422 44.886C36.8282 50.178 35.1422 56.662 34.7342 62.23C34.5942 64.124 34.5562 66.742 35.0582 69.08C34.1842 67.984 33.4242 66.696 32.8002 65.23C29.9522 58.558 30.1482 49.106 33.2802 42.242ZM72.3182 59.974C68.1282 69.16 59.0342 74.592 49.5422 74.592C48.4202 74.592 47.2922 74.514 46.1682 74.36C48.3582 73.688 50.6782 72.476 53.0462 70.736C57.9162 67.162 62.2762 61.84 64.7122 56.502C68.0462 49.196 68.8802 39.396 66.7442 32.672C66.5322 32.004 66.2902 31.372 66.0242 30.776C74.1242 37.86 77.0082 49.694 72.3202 59.974H72.3182Z" fill="#0B301A"/>
</svg>

<svg xmlns="http://www.w3.org/2000/svg" width="100" height="100" fill="none" viewBox="0 0 100 100"><path fill="#0b301a" d="M60.784 25.042a26.93 26.93 0 0 0-19.424-1.154 26.92 26.92 0 0 0-15.068 12.056 1.001 1.001 0 0 0 .862 1.506 1 1 0 0 0 .864-.496 24.93 24.93 0 0 1 13.95-11.16 25 25 0 0 1 8.66-1.168c-2.13.584-4.332 1.556-6.55 2.908-5.454 3.326-10.172 8.514-12.618 13.878-3.346 7.336-3.552 17.454-.5 24.604q.113.257.228.508a25 25 0 0 1-4.382-6.624 24.98 24.98 0 0 1-1.218-17.322 1 1 0 0 0-1.92-.564 26.98 26.98 0 0 0 1.314 18.71 26.97 26.97 0 0 0 11.924 12.708c.48.306.976.58 1.49.814a1 1 0 0 0 .38.088 26.8 26.8 0 0 0 10.76 2.256c10.252 0 20.074-5.868 24.6-15.788 6.178-13.542.188-29.584-13.354-35.762zm-1.492 1.628q.256.095.51.206c.052.32.088 1.144-.282 3.03-.964 4.896-4.048 13.678-7.336 20.884C50 55.576 47.14 60.946 44.532 65.156c-3.132 5.054-4.89 6.814-5.482 7.106-1.836-1.012-2.702-4.678-2.32-9.884.392-5.344 2.012-11.574 4.334-16.66 2.32-5.088 5.962-10.394 9.742-14.194 3.388-3.406 6.482-5.158 8.488-4.852zm-17.93 46.246c1.068-1.078 2.466-2.908 4.366-5.904 2.798-4.41 5.892-10.164 8.276-15.394 3.398-7.446 6.472-16.216 7.478-21.328.148-.752.272-1.494.328-2.178 1.29 1.194 2.322 2.942 3.028 5.168 2 6.292 1.2 15.5-1.944 22.394-2.3 5.042-6.424 10.07-11.03 13.452-3.816 2.802-7.514 4.114-10.502 3.79M33.28 42.242c3.776-8.276 13.152-15.788 21.25-16.24-2.002 1.152-3.856 2.814-5.144 4.11-3.938 3.96-7.73 9.482-10.144 14.774s-4.1 11.776-4.508 17.344c-.14 1.894-.178 4.512.324 6.85-.874-1.096-1.634-2.384-2.258-3.85-2.848-6.672-2.652-16.124.48-22.988m39.038 17.732c-4.19 9.186-13.284 14.618-22.776 14.618-1.122 0-2.25-.078-3.374-.232 2.19-.672 4.51-1.884 6.878-3.624 4.87-3.574 9.23-8.896 11.666-14.234 3.334-7.306 4.168-17.106 2.032-23.83q-.32-1.002-.72-1.896c8.1 7.084 10.984 18.918 6.296 29.198z"/></svg>
